16x16/apps/openclonk.svg

<svg xmlns="http://www.w3.org/2000/svg" width="16" height="16" version="1">
 <path style="fill:#e8604d" d="M 14.845303,2.3568074 8.0765866,0.01293125 c -0.049718,-0.01724156 -0.1039636,-0.01724156 -0.1536813,0 L 1.1541896,2.3568074 c -0.092366,0.031988 -0.1541894,0.1177427 -0.1541894,0.2139335 0,2.3720071 0.6392137,5.1139856 1.7537944,7.5228361 0.9040667,1.954168 2.5298246,4.560889 5.1404166,5.881242 C 7.9274349,15.991608 7.9637052,16 8.0000231,16 c 0.03632,0 0.07259,-0.0084 0.1058118,-0.02518 C 10.716288,14.654195 12.342,12.047519 13.246252,10.093578 14.360786,7.6845463 15,4.9423862 15,2.5707419 15,2.4745509 14.93818,2.3887963 14.84581,2.3568084 Z"/>
 <path style="fill:none;stroke:#795b42;stroke-width:1.20000005;stroke-linecap:round" d="M 1.6,14.4 12.912966,3.0877386"/>
 <path style="fill:none;stroke:#b1b1b2;stroke-width:0.26633489" d="M 8.3400586,7.9495409 C 8.0190703,8.6250607 8.0128501,9.2016045 8.7476608,9.7616075 9.4824719,10.321611 10.023458,10.162564 10.57668,9.9515835"/>
 <path style="fill:#b1b1b2" d="m 0.93950262,0.02464652 a 0.55994771,0.86791887 33.145248 0 0 -0.74126457,0.48208179 0.55994771,0.86791887 33.145248 0 0 -0.00572,1.03282799 0.55994771,0.86791887 33.145248 0 0 0.34605293,0.045646 L 10.226503,8.96 11.089881,7.8259957 1.3241814,0.39202746 A 0.55994771,0.86791887 33.145248 0 0 1.1415962,0.08615854 0.55994771,0.86791887 33.145248 0 0 0.93950462,0.02464652 Z"/>
 <path style="fill:#989898" d="m 3.2702196,1.7686338 0.5453931,0.4050931 c 0.032049,0.023801 0.051259,0.088049 0.0135,0.1010094 -0.4095483,0.1405729 -0.9359186,0.3229747 -0.8192906,1.0646052 0.0062,0.039437 -0.068961,0.037305 -0.1010097,0.013496 L 2.3634218,2.9477464 c -0.032048,-0.023801 -0.021459,-0.061891 -0.013498,-0.1010097 0.1092094,-0.5367469 0.4249957,-0.8129413 0.81929,-1.0646048 0.033649,-0.021478 0.068961,-0.037304 0.1010097,-0.0135 z"/>
 <path style="fill:#989898" d="m 6.452687,4.1681671 0.5453931,0.405093 c 0.032049,0.023801 0.051259,0.088049 0.0135,0.1010093 -0.4095487,0.140573 -0.9359189,0.3229748 -0.8192909,1.0646052 0.0062,0.039437 -0.068961,0.037305 -0.1010097,0.013496 L 5.5458891,5.3472796 c -0.032049,-0.023801 -0.02146,-0.06189 -0.013496,-0.1010098 0.1092095,-0.5367469 0.4249958,-0.8129411 0.8192901,-1.0646044 0.033649,-0.021476 0.068961,-0.037305 0.1010097,-0.0135 z"/>
 <path style="fill:#989898" d="m 9.6451542,6.585018 0.5453928,0.4050929 c 0.03205,0.023801 0.05126,0.08805 0.0135,0.1010094 -0.4095481,0.1405729 -0.9359183,0.3229748 -0.8192903,1.0646052 0.0062,0.039437 -0.068961,0.037305 -0.1010097,0.013496 L 8.7383563,7.7641304 C 8.7063076,7.7403299 8.7168959,7.7022399 8.72486,7.6631207 8.8340695,7.1263738 9.1498558,6.8501796 9.5441501,6.5985163 c 0.033649,-0.021477 0.068961,-0.037305 0.1010097,-0.0135 z"/>
 <path style="fill:#b1b1b2" d="M 10.300033,8.8999915 V 9.3 H 8.7 Z"/>
 <path style="fill:#664117" d="m 15.938597,14.626686 c 0.08542,0.382937 0.05809,0.373469 -0.255071,0.611091 -0.38496,0.318496 -0.785495,0.635616 -1.243151,0.722113 -0.14741,0.028 -0.306355,0.0508 -0.473616,0.03484 -0.273363,-0.01949 -0.341908,-0.10949 -0.477247,-0.336023 L 11.016591,11.421161 10.804132,10.480521 9.8433312,9.4993517 7.8778758,7.9125704 5.3599609,6.2379038 C 5.2494054,6.0089354 5.0627282,5.7495187 4.8324874,5.4726765 4.7025358,5.3164224 4.282087,5.0186765 4.1038044,4.8826444 3.2434675,4.2261974 2.7681114,3.7793084 2.6171888,3.5248259 2.5368608,3.1998606 2.7534223,3.2368334 2.9487337,3.3921095 l 5.4546568,3.9747298 c 0.4150023,0.3016279 0.7963475,0.5948417 1.3930837,0.941903 0.3704118,0.068081 0.6034348,0.031285 0.8704868,-0.2215443 0.145082,-0.1661219 0.175889,-0.275107 0.231152,-0.3963203 0.649682,0.344586 0.847341,0.4380044 0.724742,1.4203811 l 0.145683,0.6128039 0.711586,1.6465653 3.031884,2.592671 c 0.293085,0.150285 0.374371,0.389234 0.426589,0.663387 z"/>
 <path style="fill:#b1b1b2" d="M 14.035471,5.4597371e-6 C 14.519564,0.00265383 15.075723,0.06552601 15.360339,0.30691661 c 0.316753,0.2686462 0.480094,0.88791069 0.56368,1.41120799 0.16142,0.5508982 0.0462,0.9491139 -0.161078,1.3995277 C 15.111483,4.4845442 14.262264,5.7522752 13.37315,7 11.456926,5.9177381 9.9678747,4.5078876 9,2.6983567 10.031684,1.8391217 11.184974,1.040862 12.545277,0.34640357 13.031145,0.03492565 13.550743,-5.0947417e-4 14.035471,5.4597371e-6 Z"/>
 <path style="fill:#989898" d="m 10.433878,4.7071031 c 0.263265,0.2828232 0.572546,0.6150862 0.86995,0.8717291 C 13.238404,3.2970796 13,3 13,3 12.97597,3.023326 12.559698,2.7251474 10.433878,4.7071031 Z"/>
</svg>

<svg xmlns="http://www.w3.org/2000/svg" width="16" height="16" version="1"><path style="fill:#e8604d" d="M14.845 2.357 8.077.013a.235.235 0 0 0-.154 0L1.154 2.357A.227.227 0 0 0 1 2.57c0 2.372.64 5.114 1.754 7.523.904 1.954 2.53 4.56 5.14 5.88a.234.234 0 0 0 .212 0c2.61-1.32 4.236-3.926 5.14-5.88C14.361 7.684 15 4.942 15 2.57a.227.227 0 0 0-.154-.214z"/><path style="fill:none;stroke:#795b42;stroke-width:1.20000005;stroke-linecap:round" d="M1.6 14.4 12.913 3.088"/><path style="fill:none;stroke:#b1b1b2;stroke-width:.26633489" d="M8.34 7.95c-.32.675-.327 1.252.408 1.812.734.56 1.275.4 1.829.19"/><path style="fill:#b1b1b2" d="M.94.025a.56.868 33.145 0 0-.742.482.56.868 33.145 0 0-.005 1.033.56.868 33.145 0 0 .346.045l9.688 7.375.863-1.134L1.324.392a.56.868 33.145 0 0-.182-.306A.56.868 33.145 0 0 .94.025z"/><path style="fill:#989898" d="m3.27 1.769.546.405c.032.024.05.088.013.1-.41.141-.936.324-.82 1.065.007.04-.068.038-.1.014l-.546-.405c-.032-.024-.021-.062-.013-.101.11-.537.425-.813.82-1.065.033-.021.068-.037.1-.013zM6.453 4.168l.545.405c.032.024.051.088.014.101-.41.14-.936.323-.82 1.065.006.04-.069.037-.1.013l-.546-.405c-.032-.024-.022-.062-.014-.1.11-.537.425-.814.82-1.065.033-.022.069-.038.1-.014zM9.645 6.585l.546.405c.032.024.05.088.013.101-.41.14-.936.323-.82 1.065.007.04-.068.037-.1.013l-.546-.405c-.032-.024-.021-.062-.013-.1.11-.538.425-.814.82-1.065.033-.022.068-.038.1-.014z"/><path style="fill:#b1b1b2" d="M10.3 8.9v.4H8.7z"/><path style="fill:#664117" d="M15.939 14.627c.085.383.058.373-.255.61-.385.32-.786.636-1.244.723-.147.028-.306.05-.473.035-.274-.02-.342-.11-.477-.336l-2.473-4.238-.213-.94-.96-.982-1.966-1.586L5.36 6.238c-.11-.23-.297-.488-.528-.765-.13-.157-.55-.454-.728-.59-.86-.657-1.336-1.104-1.487-1.358-.08-.325.136-.288.332-.133l5.454 3.975c.415.301.797.595 1.393.942.37.068.604.031.871-.222.145-.166.176-.275.231-.396.65.344.847.438.725 1.42l.146.613.711 1.647 3.032 2.592c.293.15.374.39.427.664z"/><path style="fill:#b1b1b2" d="M14.035 0c.485.003 1.04.066 1.325.307.317.269.48.888.564 1.411.161.551.046.95-.161 1.4-.652 1.367-1.5 2.634-2.39 3.882C11.457 5.918 9.968 4.508 9 2.698A18.956 18.956 0 0 1 12.545.346C13.031.035 13.551 0 14.035 0z"/><path style="fill:#989898" d="M10.434 4.707c.263.283.572.615.87.872C13.238 3.297 13 3 13 3c-.024.023-.44-.275-2.566 1.707z"/></svg>
